X: 1
T:Brighton Camp
M:C
C:
S:Radford
N:
A:Adderbury
O:English
R:Reel
%P:Ch A(AB)$^6$
P:A A(AB)6
%
%
%
K:G
I:speed 400
L:1/8
P:A
   gf | ee   d2   B2    G2  | A2    G2  E2    D2 | GGGG      GB   d2 | e4 d2
w: Oh_  let_ the  night be    ever  so  dark, O   let it be_ wet_ and  wind-y;
   gf | e2   d2   B2    GG  | A2    G2  E2    GG | F2     A2 D2   EF | G4 G3 d ||
w: I_   must re-  turn to the Brigh-ton Camp, to  the girl I left be - hind me.
P:B
        B2   d2   e2    f2  | g2    d2  B2    GA | B2     d2 e2   f2 | g4 f2  \
%
%
gf   |\
%
%
        e2   d2   B2    G2  | A2    G2  E2    G2 | F2     A2 D2   EF | G4 G2 ||
